dist/svgs/devui-icons/op/filter-o.svg

<?xml version="1.0" encoding="UTF-8"?>
<svg width="16px" height="16px" viewBox="0 0 16 16" version="1.1" xmlns="http://www.w3.org/2000/svg" xmlns:xlink="http://www.w3.org/1999/xlink">
    <title>icon_new/filter</title>
    <desc>Created with Sketch.</desc>
    <g id="icon_new/filter" stroke="none" stroke-width="1" fill="none" fill-rule="evenodd">
        <path d="M5,8.41421356 L1,4.41421356 L1,1 L15,1 L15,4.41421356 L11,8.41421356 L11,15.2807764 L5,13.7807764 L5,8.41421356 Z M13,3 L3,3 L3,3.58578644 L7,7.58578644 L7,12.2192236 L9,12.7192236 L9,7.58578644 L13,3.58578644 L13,3 Z" id="矩形" fill="#293040" fill-rule="nonzero"></path>
    </g>
</svg>

<svg xmlns="http://www.w3.org/2000/svg" viewBox="0 0 16 16"><path d="M5 8.414l-4-4V1h14v3.414l-4 4v6.867l-6-1.5V8.414zM13 3H3v.586l4 4v4.633l2 .5V7.586l4-4V3z"/></svg>
